src/images/linkedin.svg

<svg fill="#ffffff" xmlns="http://www.w3.org/2000/svg"  viewBox="0 0 24 24" width="24px" height="24px"><path d="M 21.800781 0 L 2.199219 0 C 1 0 0 1 0 2.199219 L 0 21.800781 C 0 23 1 24 2.199219 24 L 21.800781 24 C 23 24 24 23 24 21.800781 L 24 2.199219 C 24 1 23 0 21.800781 0 Z M 7 20 L 3 20 L 3 9 L 7 9 Z M 5 7.699219 C 3.800781 7.699219 3 6.898438 3 5.898438 C 3 4.800781 3.800781 4 5 4 C 6.199219 4 7 4.800781 7 5.800781 C 7 6.898438 6.199219 7.699219 5 7.699219 Z M 21 20 L 17 20 L 17 14 C 17 12.398438 15.898438 12 15.601563 12 C 15.300781 12 14 12.199219 14 14 C 14 14.199219 14 20 14 20 L 10 20 L 10 9 L 14 9 L 14 10.601563 C 14.601563 9.699219 15.601563 9 17.5 9 C 19.398438 9 21 10.5 21 14 Z"/></svg>

<svg xmlns="http://www.w3.org/2000/svg" fill="#ffffff" width="24" height="24"  xmlns:v="https://vecta.io/nano"><path d="M21.801 0H2.199A2.22 2.22 0 0 0 0 2.199v19.602A2.22 2.22 0 0 0 2.199 24h19.602A2.22 2.22 0 0 0 24 21.801V2.199A2.22 2.22 0 0 0 21.801 0zM7 20H3V9h4zM5 7.699c-1.199 0-2-.801-2-1.801C3 4.801 3.801 4 5 4s2 .801 2 1.801c0 1.098-.801 1.898-2 1.898zM21 20h-4v-6c0-1.602-1.102-2-1.398-2S14 12.199 14 14v6h-4V9h4v1.602C14.602 9.699 15.602 9 17.5 9s3.5 1.5 3.5 5z"/></svg>
